X: 1260
T: Colonel Hopkins
M:C|
L:1/8
R:Reel
B:O'Neill's 1260
N:Collected by F. O'Neill
Z:Transcribed by Trish O'Neil
K:G
ge \
| ~dBGBd2(ef) | g2af gfed | bgaf gfed |1 BedBA2 :|2 egfag2 ||
| (GA) \
| B2(dB)A2(BA) | GABG AGFD | B2(dB)A2(BA) | GABGA2(ge) |
| dBGBd2(ef)g2~af gfed | bgaf gfed | egfag2 |]


